icons/desktop/20/themes-20.svg

<svg width="20" height="20" viewBox="0 0 20 20" fill="none" xmlns="http://www.w3.org/2000/svg">
<path fill-rule="evenodd" clip-rule="evenodd" d="M10 0C11.529 0 13.4173 0.115633 15.5449 0.507812C16.669 0.715399 17.4998 1.69412 17.5 2.84766V9.94043C17.4998 11.3959 16.4941 12.6575 15.0771 12.9844C15.0703 12.9861 15.0635 12.9897 15.0566 12.9912L12.9971 13.4512L12.9814 17.3857C12.9754 18.8312 11.8022 19.9998 10.3564 20H9.64746C8.29365 20 7.17539 18.9745 7.03613 17.6543L7.02246 17.3867L7.00293 13.4512L4.94336 12.9912C3.51589 12.6718 2.50019 11.405 2.5 9.94141V2.84863C2.50017 1.71393 3.29913 0.723445 4.43164 0.512695C6.00054 0.221377 7.87926 0 10 0ZM4.25 9.94141C4.25019 10.5854 4.69693 11.1426 5.3252 11.2832L8.06641 11.8965L8.20996 11.9414C8.53097 12.0742 8.7483 12.3891 8.75 12.7461L8.77246 17.3789L8.77637 17.4688C8.82284 17.908 9.19567 18.25 9.64746 18.25H10.3564C10.8383 18.2498 11.2294 17.8601 11.2314 17.3779L11.25 12.7461C11.2518 12.3381 11.5355 11.9858 11.9336 11.8965L14.6641 11.2852C14.6677 11.2843 14.6712 11.283 14.6748 11.2822C15.3028 11.1417 15.7498 10.5837 15.75 9.94043V9H4.25V9.94141ZM6.0957 2.01758C5.62484 2.08216 5.17635 2.15459 4.75195 2.2334C4.46491 2.28677 4.25017 2.53979 4.25 2.84863V7.25H15.75V2.84766C15.7498 2.54965 15.5329 2.28509 15.2275 2.22852C14.9042 2.16891 14.5865 2.11699 14.2754 2.07031L14.1035 2.23535L12.5059 3.73047C12.1119 4.09814 11.4971 4.08781 11.1162 3.70703L10.04 2.63086H9.20898L8.48535 3.23438C8.07235 3.57838 7.46059 3.53477 7.10059 3.13477L6.0957 2.01758Z" fill="black"/>
</svg>

<!-- This Source Code Form is subject to the terms of the Mozilla Public
   - License, v. 2.0. If a copy of the MPL was not distributed with this
   - file, You can obtain one at http://mozilla.org/MPL/2.0/. -->
<svg xmlns="http://www.w3.org/2000/svg" width="20" height="20" fill="context-fill" fill-opacity="context-fill-opacity" viewBox="0 0 20 20">
    <path fill-rule="evenodd" d="M10 0c1.529 0 3.417.116 5.545.508a2.385 2.385 0 0 1 1.955 2.34V9.94a3.125 3.125 0 0 1-2.423 3.044q-.01.004-.02.007l-2.06.46-.016 3.935A2.625 2.625 0 0 1 10.356 20h-.709a2.626 2.626 0 0 1-2.61-2.346l-.015-.267-.02-3.936-2.059-.46A3.126 3.126 0 0 1 2.5 9.941V2.85c0-1.135.8-2.126 1.932-2.336A30.5 30.5 0 0 1 10 0M4.25 9.941c0 .644.447 1.202 1.075 1.342l2.741.614.144.044a.88.88 0 0 1 .54.805l.022 4.633.004.09c.047.439.42.781.871.781h.71c.481 0 .872-.39.874-.872l.019-4.632a.875.875 0 0 1 .684-.85l2.73-.61.01-.004A1.376 1.376 0 0 0 15.75 9.94V9H4.25zm1.846-7.923q-.707.097-1.344.215a.62.62 0 0 0-.502.616V7.25h11.5V2.848a.635.635 0 0 0-.523-.62q-.484-.089-.952-.158l-.171.165-1.598 1.495a1 1 0 0 1-1.39-.023L10.04 2.631h-.831l-.724.603c-.413.344-1.024.3-1.384-.1z" clip-rule="evenodd" />
</svg>
